!!!ONB: MCCC : IFM0075_06 : Extracted Monophonic Melody
!!!COM: Mendelssohn, Felix
!!!OPR: Lieder ohne Worte
!!!OMV: 6
!!!SCT: Op.19b
!!!ODT: 1829///
**kern
*staff1
*clefG2
*k[b-e-]
*B-:
*M6/8
=3
4.d
4.f[
=4
4.f]
4.e-
=5
2.d
=6
2.r
=7
4.r
4r
8dd
=8
4cc
8b-
4a
8cc
=9
4b-
8a
4g
8d
=10
4e-
8e-
16e-
16f
8g
8e-
=11
4.d
4d
8dd
=12
4cc
8b-
4a
8cc
=13
4b-
8a
8g
8g
8a
=14
8b-
8dd-
8dd
8ff
8ee
8dd
=15
4aa
8ff
4dd
8a
=16
8b-
8dd-
8dd
8ff
8ee
8dd
=17
4.dd[
4dd]
8dd
=18
8ff[
8ff]
8dd
8cc[
8cc]
8b
=19
8cc[
8cc]
8g
8a-[
8a-]
8b
=20
8cc[
8cc]
8g
8a-[
8a-]
8b
=21
8cc
8cc
8cc[
8cc]
8e-
8cc
=22
8ee-[
8ee-]
8a
8ee-[
8ee-]
8a
=23
8ee-
8ee-
8ee-[
4ee-]
8dd
=24
8cc[
8cc]
8b-
8a
8b-
8g
=25
8dd
8dd
8dd
8dd
8dd
8dd
=26
8dd
8dd
8ee-
8ee-[
8ee-]
8gg
=27
8gg
8gg
8ee-
8ee-[
8ee-]
8gg
=28
8gg
8gg
8dd
8cc
8b-
8a
=29
8dd
8dd
8dd
8dd
8dd
8b-[
=30
8b-]
8b-
8ee-
8ee-[
8ee-]
8gg
=31
8gg
8gg
8ee-
8ee-[
8ee-]
8gg[
=32
8gg]
4gg
8r
8ee-[
8ee-]
=33
8b-
8cc[
8cc]
8g
8a
8a
=34
4.g
4r
8dd
=35
4cc
8b-
4a
8cc
=36
4b-
8ddd
4ddd
8b-
=37
4a
8g
4f#
8a
=38
4g
8ddd
4ddd
8b-
=39
4g
8ddd
4.ddd
=40
4.r
4.f[
=41
4.f]
4.e-
=42
2.d
=43
2.r
=44
4.r
4.d[
=45
4.d]
4.d
=46
*M12/8
4.d
4.r
2.r
==
*-
